!!!COM: Mozart
!!!OTL: 12 Variations on "Ah Vous dirais-je, Maman" for the Piano,
!!!Variation: 7 b
**kern	**chords	**kern	**kern
*M2/4	*M2/4	*M2/4	*M2/4
=-	=-	=-	=-
2D	2I64	2G 2e	(16ggLL
.	.	.	16ccc
.	.	.	16eee
.	.	.	16dddJJ
.	.	.	16cccLL
.	.	.	16bb
.	.	.	16aa
.	.	.	16ggJJ
=	=	=	=
2D	2V7	2G 2d	16ffLL
.	.	.	16ee
.	.	.	16dd
.	.	.	16ccJJ
.	.	.	16bLL
.	.	.	16a
.	.	.	16g
.	.	.	16fJJ
=	=	=	=
2D	2I64	2G 2c	8eL)
.	.	.	(8ee'J
.	.	.	8ff'L
.	.	.	8ff#'J)
=	=	=	=
4D	4C64	2G 2B	(8.ggL
.	.	.	16eeJk
4D	4V	.	8dd)
.	.	.	8r
=	=	=	=
2D	2I64	2G 2e	(16ggLL
.	.	.	16ccc
.	.	.	16eee
.	.	.	16dddJJ
.	.	.	16cccLL
.	.	.	16bb
.	.	.	16aa
.	.	.	16ggJJ
=	=	=	=
2D	2V7	2G 2d	16ffLL
.	.	.	16ee
.	.	.	16dd
.	.	.	16ccJJ
.	.	.	16bLL
.	.	.	16a
.	.	.	16g
.	.	.	16fJJ
=	=	=	=
2D	2I64	2G 2c	8eL)
.	.	.	(8ee'J
.	.	.	8ff'L
.	.	.	8ff#'J)
=	=	=	=
4D	4C64	2G 2B	(8.ggL
.	.	.	16eeJk
4D	4V	.	8dd)
.	.	.	8r
*-	*-	*-	*-
